lib/svgs/unlock.svg

<?xml version="1.0" encoding="UTF-8"?>
<svg width="16px" height="16px" viewBox="0 0 16 16" version="1.1" xmlns="http://www.w3.org/2000/svg" xmlns:xlink="http://www.w3.org/1999/xlink">
    <!-- Generator: sketchtool 51.3 (57544) - http://www.bohemiancoding.com/sketch -->
    <title>app/unlock</title>
    <desc>Created with sketchtool.</desc>
    <defs></defs>
    <g id="Icons" stroke="none" stroke-width="1" fill="none" fill-rule="evenodd">
        <g id="Web" transform="translate(-99.000000, -552.000000)" fill="#000000">
            <g id="app/unlock" transform="translate(99.000000, 552.000000)">
                <path d="M12.3707,6.704 L12.3707,4.371 C12.3707,1.961 10.4097,0 7.9997,0 C5.5897,0 3.6287,1.961 3.6287,4.371 C3.6287,4.702 3.8977,4.971 4.2287,4.971 C4.5607,4.971 4.8297,4.702 4.8297,4.371 C4.8297,2.623 6.2517,1.2 7.9997,1.2 C9.7477,1.2 11.1707,2.623 11.1707,4.371 L11.1707,6.702 L3.6527,6.702 C2.5527,6.702 1.6527,7.602 1.6527,8.702 L1.6527,14 C1.6527,15.1 2.5527,16 3.6527,16 L12.3477,16 C13.4477,16 14.3477,15.1 14.3477,14 L14.3477,8.702 C14.3477,7.609 13.4597,6.717 12.3707,6.704 M13.1477,14 C13.1477,14.434 12.7817,14.8 12.3477,14.8 L3.6527,14.8 C3.2187,14.8 2.8527,14.434 2.8527,14 L2.8527,8.702 C2.8527,8.268 3.2187,7.902 3.6527,7.902 L12.3477,7.902 C12.7817,7.902 13.1477,8.268 13.1477,8.702 L13.1477,14 M8,10.2552 C7.338,10.2552 6.801,10.7922 6.801,11.4542 C6.801,12.1162 7.338,12.6532 8,12.6532 C8.662,12.6532 9.199,12.1162 9.199,11.4542 C9.199,10.7922 8.662,10.2552 8,10.2552" id="Shape"></path>
            </g>
        </g>
    </g>
</svg>

<svg xmlns="http://www.w3.org/2000/svg" viewBox="0 0 16 16">
    <path d="M12.37 6.704V4.371A4.376 4.376 0 0 0 8 0a4.376 4.376 0 0 0-4.371 4.371.6.6 0 0 0 1.2 0 3.174 3.174 0 0 1 6.342 0v2.331H3.653c-1.1 0-2 .9-2 2V14c0 1.1.9 2 2 2h8.695c1.1 0 2-.9 2-2V8.702a2.005 2.005 0 0 0-1.977-1.998M13.148 14a.81.81 0 0 1-.8.8H3.653a.81.81 0 0 1-.8-.8V8.702c0-.434.366-.8.8-.8h8.695c.434 0 .8.366.8.8V14M8 10.255a1.2 1.2 0 1 0 0 2.399 1.2 1.2 0 0 0 0-2.399"/>
</svg>
